X: 4339
M: 6/8
L: 1/8
K: C
|:"_p 2nd f"\
dze dze |
cze cze | cze edc | Bze gze |\
dze dze | cze czc | cze edc | Bze gze |\
dze dze | cze czc |
cze edc | B2z !f!g2f |\
e2e e2e | fef A3 | !p!AzA BzG | cGA Bcd |\
!f!e2e e2e | fef a3 | aag fed | cGG GG"_D.C."G |]


